!!!!SEGMENT: pl-kk--kk-i-636--001-009_anonim--in-corona-domini-responsorium-6tum.krn
!!!cenid: 18xx:4531
!!!COM: Anonim
!!!COM-rismID: pe30004985
!!!CDT:
!!!CNT:
!!!OPR: In Corona Domini
!!!OTL: Responsorium 6tum
!!!OMV: 009
!!!PDT:
!!!AGN: Sacred
!!!YEC: Copyright 2022 Narodowy Instytut Fryderyka Chopina (https://polishscores.org)
!!!YEM: License CC-BY-4.0 (https://creativecommons.org/licenses/by/4.0)
!!!SMS-siglum: PL-Kk
!!!SMS-shelfmark: Kk.I.636
!!!SMS-variant:
!!!SMS-altvar:
!!!SMS-shelfwork: 001-009 M
!!!NIFC-rismSourceID: 1001216440
!!!NIFC-rismChildID: 1001216911
!!!NIFC-islandoraID: pl-kk:40786
!!!URL-pdf-islandora: https://repozytorium.nifc.pl/islandora/object/pl-kk%3A40786/datastream/PDF/view
!!!URL-scan: https://polish.musicsources.pl/pl/lokalizacje/galeria/rekopisy/7271/1 @EN{Scan on Polish Music Sources Website} @PL{Skany w portalu Dziedzictwo Muzyki Polskiej w otwartym dostępie}
!!!IIIF:
!!!ONB-nifc: UWAGA: Lamentacje i Responsoria In Corona Domini na skanach: S – 1-7, A – 24-30, T – 45-52, B – 70-78. Każda Lamentacja i Responsorium to oddzielne pliki.
!!!OMD:
!!!AIN: 1 alto 1 bass 1 soprn 1 tenor
!!!key: c
**kern	**text	**dynam	**kern	**text	**kern	**text	**kern	**text
*part4	*part4	*part4	*part3	*part3	*part2	*part2	*part1	*part1
*staff4	*staff4	*	*staff3	*staff3	*staff2	*staff2	*staff1	*staff1
*I"Basso.	*	*	*I"Tenore.	*	*I"Alto.	*	*I"Soprano.	*
*I'B	*	*	*I'T	*	*I'A	*	*I'S	*
*Ibass	*	*	*Itenor	*	*Ialto	*	*Isoprn	*
*ICvox	*	*	*ICvox	*	*ICvox	*	*ICvox	*
*clefF4	*	*	*clefC4	*	*clefC3	*	*clefC1	*
*k[b-e-a-]	*	*	*k[b-e-a-]	*	*k[b-e-a-]	*	*k[b-e-a-]	*
*c:	*	*	*c:	*	*c:	*	*c:	*
*M2/2	*	*	*M2/2	*	*M2/2	*	*M2/2	*
*met(c|)	*	*	*met(c|)	*	*met(c|)	*	*met(c|)	*
=1	=1	=1	=1	=1	=1	=1	=1	=1
!!LO:TX:t=P:problem=all\right:global
!	!	!LO:DY:a:rj	!	!	!	!	!	!
4.C/	U-	f	4.G/	U-	4.e-\	U-	4.cc\	U-
8C/	-nus	.	8G/	-nus	8e-\	-nus	8g\	-nus
4C/	ex	.	4G/	ex	4e-\	ex	4g\	ex
4C/	Di-	.	4G/	Di-	4g\	dis-	4ee-\	Di-
!LO:LB:g=original	!	!	!LO:LB:g=original	!	!	!	!LO:LB:g=original	!
=2	=2	=2	=2	=2	=2	=2	=2	=2
4C/	-sci-	.	4.Bn\	-sci-	4f\	-ci-	4dd\	-sci-
8C/	-pu-	.	.	.	8e-\	-pu-	8cc\	-pu-
8C/	-lis	.	16c\	-pu-	8e-\	-lis	8cc\	-lis
.	.	.	16c\	-lis	.	.	.	.
4C/	me-	.	4c\	me-	4e-\	me-	4cc\	me-
4c\	-is	.	4e-\	-is	4g\	-is	4cc\	-is
!	!	!	!	!	!LO:LB:g=original	!	!	!
=3	=3	=3	=3	=3	=3	=3	=3	=3
*2\right	*	*	*2\right	*	*2\right	*	*2\right	*
2A-X\	tra-	.	2e-\	tra-	2f#X\	tra-	2cc\	tra-
4G\	-det	.	4e-\	-det	4g\	-det	4cc\	-det
4F#X\	me	.	4e-\	me	4an\	me	4cc\	me
=4	=4	=4	=4	=4	=4	=4	=4	=4
4.G\	ho-	.	4.e-\	ho-	4.g\	ho-	4.cc\	ho-
8GG/	-di-	.	8e-\	-di-	8g\	-di-	8cc\	-di-
2GG/	-e	.	2d\	-e,	2g\	-e,	2bn\	-e,
!	!	!	!	!	!	!	!LO:LB:g=original	!
=5	=5	=5	=5	=5	=5	=5	=5	=5
4r	.	.	4r	.	4r	.	4r	.
!	!	!LO:DY:b:t=p.:rj	!	!	!	!	!	!
4G\	tra-	p	4Bn\	tra-	4g\	tra-	4dd\	tra-
4G\	-det	.	4B\	-det	4g\	-det	4dd\	-det
4G\	me	.	4B\	me	4g\	me	4dd\	me
!LO:LB:g=original	!	!	!LO:LB:g=original	!	!	!	!	!
=6	=6	=6	=6	=6	=6	=6	=6	=6
2c\	tra-	.	2c\	tra-	2g\	tra-	2ee-\	tra-
4B-\	-det	.	4d-X\	-det	4g\	-det	4een\	-det
4B-\	me	.	4d-\	me	4g\	me	4ee\	me
=7	=7	=7	=7	=7	=7	=7	=7	=7
4.A-\	ho-	.	4.c\	ho-	4.f\	ho-	4.ff\	ho-
8A-\	-di-	.	8c\	-di-	8f\	-di-	8f/	-di-
2A-\	-e	.	2c\	-e	2f\	-e,	2f/	-e,
!	!	!	!	!	!LO:LB:g=original	!	!	!
=8	=8	=8	=8	=8	=8	=8	=8	=8
!LO:TX:a:t=2.	!	!	!LO:TX:a:t=1	!	!LO:TX:a:t=1	!	!	!
0r	.	.	1r	.	1r	.	4r	.
.	.	.	.	.	.	.	2ff\	ve
.	.	.	.	.	.	.	4dd\	.
!	!	!	!	!	!	!	!LO:LB:g=original	!
=9	=9	=9	=9	=9	=9	=9	=9	=9
.	.	.	4r	.	4r	.	2bn\	il-
.	.	.	4f\	ve	4a-\	Ve	.	.
.	.	.	4e-\	il-	4g\	il-	2b\	-li
.	.	.	4d\	-li	4f\	-li	.	.
=10	=10	=10	=10	=10	=10	=10	=10	=10
2r	.	.	2e-\	per	2g\	per	2cc\	per
4G\	per	.	2Bn\	quem	2g\	quem	2dd\	quem
4G\	quem	.	.	.	.	.	.	.
!	!	!	!LO:LB:g=original	!	!	!	!	!
=11	=11	=11	=11	=11	=11	=11	=11	=11
2c\	tra-	.	2c\	tra-	2g\	tra-	2ee-\	tra-
2Bn\	.	.	2d\	.	2g\	.	2ff\	.
!LO:LB:g=original	!	!	!	!	!	!	!	!
=12	=12	=12	=12	=12	=12	=12	=12	=12
2c\	.	.	2c\	.	2g\	.	2ee-\	.
2F\	-dar	.	2f\	dar	2a-\	-dar	2dd\	-dar
=13	=13	=13	=13	=13	=13	=13	=13	=13
2G\	e-	.	2e-\	e-	1g	e-	2cc\	e-
2GG/	.	.	2d\	.	.	.	2bn\	.
!	!	!	!	!	!LO:LB:g=original	!	!LO:LB:g=original	!
=14	=14	=14	=14	=14	=14	=14	=14	=14
2C;/	-go,	.	2e-;\	-go,	2g;\	-go,	2cc;\	-go,
4r	.	.	4r	.	4r	.	4r	.
!	!	!LO:DY:b:t=p.:rj	!	!	!	!	!	!
4AA-/	me-	p	4E-/	me-	4c\	me-	[4a-\	me-
=15	=15	=15	=15	=15	=15	=15	=15	=15
4.AA-/	.	.	4.E-/	.	4.c\	.	4.a-\]	.
8AA-/	-li-	.	8A-\	-li-	8c\	-li-	8e-/	-li-
2AA-/	-us	.	2A-\	-us	2c\	-us	2e-/	-us
!	!	!	!LO:LB:g=original	!	!	!	!	!
=16	=16	=16	=16	=16	=16	=16	=16	=16
4AA-/	il-	.	4A-\	il-	4c\	il-	4e-/	il-
4AA-/	-li	.	4A-\	-li	4c\	-li	4e-/	-li
4AA-/	e-	.	4A-\	e-	4c\	e-	4a-\	e-
4A-\	-rat	.	4A-\	-rat	4e-\	-rat	4cc\	-rat
!LO:LB:g=original	!	!	!	!	!	!	!	!
=17	=17	=17	=17	=17	=17	=17	=17	=17
2G\	si	.	2B-\	si	4.e-\	si-	4.ee-\	si-
.	.	.	.	.	8e-\	.	8dd-X\	.
4G\	na-	.	4B-\	na-	4e-\	na-	4dd-\	-na-
4A-\	-tus	.	4A-\	-tus	4e-\	-tus	4cc\	-tus
!	!	!	!	!	!LO:LB:g=original	!	!LO:LB:g=original	!
=18	=18	=18	=18	=18	=18	=18	=18	=18
2E-\	non	.	2A-\	non	2e-\	non	2cc\	non
2E-\	fu-	.	2d-X\	fu-	2g\	fu-	2b-\	fu-
=19	=19	=19	=19	=19	=19	=19	=19	=19
4AA-/	-is-	.	4c\	-is-	4e-\	-is-	4a-\	-is-
!	!	!	!	!	!	!	!LO:TX:b:i:t=Volti Subitto.	!
2.AA-;/	-set,	.	2.c;\	-set.	2.e-;\	-set,	2.a-;\	-set.
!	!	!	!LO:LB:g=original	!	!	!	!LO:PB:g=original	!
=20||	=20||	=20||	=20||	=20||	=20||	=20||	=20||	=20||
4r	.	.	4r	.	4r	.	4r	.
2A-\	qui	.	2e-\	qui	2a-\	qui	2cc\	qui
4A-\	in-	.	4e-\	in-	4a-\	in-	4cc\	in-
=21	=21	=21	=21	=21	=21	=21	=21	=21
2E-\	-tin-	.	2e-\	-tin-	2a-\	-tin-	2cc\	-tin-
2E-\	-git	.	2e-\	-git	2g\	-git	2b-\	-git
!LO:LB:g=original	!	!	!	!	!	!	!	!
=22	=22	=22	=22	=22	=22	=22	=22	=22
4r	.	.	4r	.	4r	.	4r	.
2G\	me-	.	2e-\	me-	2b-\	me-	2dd-X\	me-
4G\	-cum	.	4e-\	-cum	4b-\	-cum	4dd-\	-cum
=23	=23	=23	=23	=23	=23	=23	=23	=23
2A-\	ma-	.	2e-\	ma-	2b-\	ma-	2dd-X\	ma-
2A-\	-num	.	2e-\	-num	2a-\	-num	2cc\	-num
!	!	!	!	!	!LO:LB:g=original	!	!	!
=24	=24	=24	=24	=24	=24	=24	=24	=24
4r	.	.	4r	.	4r	.	4r	.
4A-\	in	.	4e-\	in	4a-\	in	4cc\	in
4A-\	pa-	.	4e-\	pa-	4a-\	pa-	4cc\	pa-
4A-\	-ro-	.	4e-\	-ro-	4a-\	-ro-	4cc\	-ro-
!	!	!	!LO:LB:g=original	!	!	!	!LO:LB:g=original	!
=25	=25	=25	=25	=25	=25	=25	=25	=25
4A-\	-psi-	.	4c\	-psi-	4f\	-psi-	4ff\	-psi-
4G\	-de	.	4c\	-de,	4g\	-de	4ee-\	-de
4F\	pa-	.	4f\	in	4a-\	pa-	4dd\	pa-
4F#X\	-ro-	.	4e-\	pa-	4an\	-ro-	4cc\	-ro-
!LO:LB:g=original	!	!	!	!	!	!	!	!
=26	=26	=26	=26	=26	=26	=26	=26	=26
2G\	-psi-	.	4.e-\	-ro-	4.g\	-psi-	4.cc\	-psi-
.	.	.	8d\	-psi-	8g\	.	8bn\	.
2G\	-de,	.	2d\	-de,	2g\	-de,	2b\	-de
=27	=27	=27	=27	=27	=27	=27	=27	=27
4r	.	.	4r	.	4r	.	4r	.
2En\	hic	.	2c\	hic	2g\	hic	2cc\	hic
4E\	me	.	4c\	me	4g\	me	4b-\	me
!	!	!	!	!	!LO:LB:g=original	!	!	!
=28	=28	=28	=28	=28	=28	=28	=28	=28
4F\	tra-	.	4c\	tra-	4f\	tra-	4a-\	tra-
4F\	-di-	.	4c\	-di-	4f\	-di-	4a-\	-di-
4D\	-tu-	.	4B-\	-tu-	4f\	-tu-	4b-\	-tu-
4D\	-rus	.	4B-\	-rus	4f\	-rus	4a-\	-rus
!	!	!	!LO:LB:g=original	!	!	!	!LO:LB:g=original	!
=29	=29	=29	=29	=29	=29	=29	=29	=29
2E-\	est	.	2B-\	est	2e-\	est	2g\	est
2AA-/	in	.	2c\	in	2f\	in	2a-\	in
=30	=30	=30	=30	=30	=30	=30	=30	=30
2BB-/	ma-	.	2B-\	ma-	2e-\	ma-	2g/	ma-
!	!	!	!	!	!LO:TX:b:i:t=Volti Subitto.	!	!	!
2BB-/	-nus,	.	2B-\	-nus,	2d\	-nus,	2f/	-nus
!LO:PB:g=original	!	!	!	!	!LO:PB:g=original	!	!	!
=31	=31	=31	=31	=31	=31	=31	=31	=31
4r	.	.	4r	.	4r	.	4r	.
2BB-/	tra-	.	2B-\	tra-	2d\	tra-	2f/	tra-
4BB-/	-di-	.	4B-\	-di-	4d\	-di-	4f/	-di-
=32	=32	=32	=32	=32	=32	=32	=32	=32
4E-\	-tu-	.	4B-\	-tu-	4e-\	-tu-	4g\	-tu-
4E-\	-rus	.	4B-\	-rus	4e-\	-rus	4g\	-rus
4E-\	est	.	4B-\	est	4e-\	est	4g\	est
4E-\	in	.	4B-\	in	4e-\	in	4g\	in
=33	=33	=33	=33	=33	=33	=33	=33	=33
2AA-/	ma-	.	2A-/	ma-	2e-\	ma-	2cc\	ma-
2BB-/	-nus	.	2F/	-nus	2d\	-nus	2b-\	-nus
!	!	!	!LO:PB:g=original	!	!	!	!LO:LB:g=original	!
=34	=34	=34	=34	=34	=34	=34	=34	=34
4C/	pec-	.	4c\	pec-	4e-\	pec-	2a-\	pec-
4D/	.	.	4B-\	.	4f\	.	.	.
2E-\	-ca-	.	2B-\	-ca-	2e-\	-ca-	2g\	-ca-
!LO:LB:g=original	!	!	!	!	!	!	!	!
=35	=35	=35	=35	=35	=35	=35	=35	=35
1BB-	-to-	.	1B-	-to-	2e-\	-to-	1f	-to-
.	.	.	.	.	2d\	.	.	.
!	!	!	!	!	!LO:LB:g=original	!	!	!
=36	=36	=36	=36	=36	=36	=36	=36	=36
1E-	-rum:	.	1B-	-rum:	1e-;	-rum,	1g;	-rum,
=37||	=37||	=37||	=37||	=37||	=37||	=37||	=37||	=37||
4r	.	.	4r	.	4r	.	4r	.
2E-\	me-	.	2B-\	me-	2e-\	me-	2g\	me-
4E-\	-li-	.	4B-\	-li-	4e-\	-li-	4g\	-li-
=38	=38	=38	=38	=38	=38	=38	=38	=38
2D\	-us	.	2Bn\	-us	2f\	-us	2g\	-us
4D\	il-	.	4B\	il-	4f\	il-	4g\	il-
4D\	-li	.	4B\	-li	4f\	-li	4g\	-li
=39	=39	=39	=39	=39	=39	=39	=39	=39
2C/	e-	.	2c\	e-	2e-\	e-	2g\	e-
4C/	.	.	2c\	-rat	4e-\	.	(4g\	-rat
4E-\	rat	.	.	.	4g\	-rat	4cc\)	.
!	!	!	!LO:LB:g=original	!	!	!	!LO:LB:g=original	!
=40	=40	=40	=40	=40	=40	=40	=40	=40
2G\	e-	.	4.e-\	si	4.g\	e-	4.cc\	e-
.	.	.	8d\	na-	8g\	.	8bn\	.
2GG/	-rat,	.	2d\	-tus	2g\	rat,	2b\	-rat
!LO:LB:g=original	!	!	!	!	!	!	!	!
=41	=41	=41	=41	=41	=41	=41	=41	=41
2r	.	.	2r	.	2r	.	2r	.
2G\	si	.	2Bn\	si	2g\	si	2dd\	si
!	!	!	!	!	!LO:LB:g=original	!	!	!
=42	=42	=42	=42	=42	=42	=42	=42	=42
2c\	na-	.	2c\	na-	2g\	na-	2ee-\	na-
2G\	-tus	.	2Bn\	-tus	2g\	-tus	2dd\	-tus
=43	=43	=43	=43	=43	=43	=43	=43	=43
2c\	na-	.	2c\	na-	2g\	na-	2ee-\	na-
2G\	-tus	.	2Bn\	-tus	4g\	-tus	2dd\	-tus
.	.	.	.	.	4f\	.	.	.
=44	=44	=44	=44	=44	=44	=44	=44	=44
4A-\	na-	.	4c\	na-	4e-\	na-	4cc\	na-
4A-\	-tus	.	4c\	-tus	4e-\	-tus	4cc\	-tus
4F\	non	.	4A-\	non	4f\	non	4dd\	non
4F\	fu-	.	4A-\	fu-	4f\	fu-	4dd\	fu-
!	!	!	!LO:LB:g=original	!	!	!	!LO:LB:g=original	!
=45	=45	=45	=45	=45	=45	=45	=45	=45
2G\	-is-	.	2G/	-is-	2e-\	-is-	2cc\	-is-
2GG/	-set,	.	2G/	-set,	2d\	-set,	2bn\	-set,
!LO:LB:g=original	!	!	!	!	!	!	!	!
=46	=46	=46	=46	=46	=46	=46	=46	=46
2r	.	.	2r	.	2r	.	2r	.
2En\	si	.	2c\	si	2g\	si	4cc\	si
.	.	.	.	.	.	.	4b-\	.
!	!	!	!	!	!LO:LB:g=original	!	!	!
=47	=47	=47	=47	=47	=47	=47	=47	=47
2F\	na-	.	2c\	na-	2f\	na-	2a-\	na-
2F\	-tus	.	2c\	-tus	2f\	-tus	2a-\	-tus
=48	=48	=48	=48	=48	=48	=48	=48	=48
4D\	na-	.	4B-\	na-	4f\	na-	4a-\	na-
4D\	-tus	.	4B-\	-tus	4f\	-tus	4a-\	-tus
4D\	non	.	4B-\	non	4f\	non	4a-\	non
4D\	fu-	.	4B-\	fu-	4f\	fu-	4a-\	fu-
!	!	!	!	!	!	!	!LO:LB:g=original	!
=49	=49	=49	=49	=49	=49	=49	=49	=49
4.E-\	-is-	.	4.B-\	-is-	4.e-\	-is-	4.g\	-is-
8E-\	-set,	.	8B-\	-set,	8e-\	-set,	8g\	-set
4AA-/	non	.	4e-\	non	4c\	non	4f#X/	non
4AA-/	fu-	.	4d\	fu-	4d\	fu-	4f#/	fu-
!LO:LB:g=original	!	!	!LO:LB:g=original	!	!	!	!	!
=50	=50	=50	=50	=50	=50	=50	=50	=50
1GG	-is-	.	2c\	-is-	2e-\	-is-	1g	-is-
.	.	.	4Bn\	.	4d\	.	.	.
.	.	.	4An\	.	4c\	.	.	.
=51	=51	=51	=51	=51	=51	=51	=51	=51
1GG;	-set.	.	1Bn;	-set,	1d;	-set.	1g;	-set.
!	!	!	!	!	!LO:LB:g=original	!	!	!
=52||	=52||	=52||	=52||	=52||	=52||	=52||	=52||	=52||
4.C/	U-	.	4.G/	u-	4.e-\	U-	4.cc\	U-
8C/	-nus	.	8G/	-nus	8e-\	-nus	8g\	-nus
4C/	ex	.	4G/	ex	4e-\	ex	4g\	ex
4C/	di-	.	4G/	di-	4g\	Di-	4ee-\	Di-
!	!	!	!	!	!	!	!LO:LB:g=original	!
=53	=53	=53	=53	=53	=53	=53	=53	=53
4C/	-sci-	.	4.Bn\	-sci-	4f\	-sci-	4dd\	-sci-
8C/	-pu-	.	.	.	8e-\	-pu-	8cc\	-pu-
8C/	-lis	.	16c\	-pu-	8e-\	-lis	8cc\	-lis
.	.	.	16c\	-lis	.	.	.	.
4C/	ma-	.	4c\	me-	4e-\	me-	4cc\	me-
4c\	-is	.	4e-\	-is	4g\	-is	4cc\	-is
=54	=54	=54	=54	=54	=54	=54	=54	=54
2A-X\	tra-	.	2e-\	tra-	2f#X\	tra-	2cc\	tra-
4G\	-det	.	4e-\	-det	4g\	-det	4cc\	-det
4F#X\	me	.	4e-\	me	4an\	me	4cc\	me
!LO:LB:g=original	!	!	!LO:LB:g=original	!	!	!	!	!
=55	=55	=55	=55	=55	=55	=55	=55	=55
4.G\	ho-	.	4.e-\	ho-	4.g\	ho-	4.cc\	ho-
8GG/	-si-	.	8e-\	-di-	8g\	-di-	8cc\	-di-
2GG/	-e	.	2d\	-e,	2g\	-e	2bn\	-e
!	!	!	!	!	!LO:LB:g=original	!	!	!
=56	=56	=56	=56	=56	=56	=56	=56	=56
4r	.	.	4r	.	4r	.	4r	.
!	!	!LO:DY:b:t=p.:rj	!	!	!	!	!	!
4G\	tra-	p	4Bn\	tra-	4g\	tra-	4dd\	tra-
4G\	-det	.	4B\	-det	4g\	-det	4dd\	-det
4G\	me	.	4B\	me	4g\	me	4dd\	me
!	!	!	!	!	!	!	!LO:LB:g=original	!
=57	=57	=57	=57	=57	=57	=57	=57	=57
2c\	tra-	.	2c\	tra-	2g\	tra-	2ee-\	tra-
4B-\	-det	.	4d-X\	-det	4g\	-det	4een\	-det
4B-\	me	.	4d-\	me	4g\	me	4ee\	me
=58	=58	=58	=58	=58	=58	=58	=58	=58
4.A-\	ho-	.	4.c\	ho-	4.f\	ho-	4.ff\	ho-
8A-\	-di-	.	8c\	-di-	8f\	-di-	8f/	-di-
2A-\	-e,	.	2c\	-e,	2f\	-e,	2f/	-e
=59	=59	=59	=59	=59	=59	=59	=59	=59
!LO:TX:a:t=2.	!	!	!LO:TX:a:t=1	!	!LO:TX:a:t=1	!	!	!
0r	.	.	1r	.	1r	.	4r	.
.	.	.	.	.	.	.	2ff\	ve
.	.	.	.	.	.	.	4dd\	.
=60	=60	=60	=60	=60	=60	=60	=60	=60
.	.	.	4r	.	4r	.	2bn\	il-
.	.	.	4f\	ve	4a-\	ve	.	.
.	.	.	4e-\	il-	4g\	il-	2b\	-li
.	.	.	4d\	-li	4f\	-li	.	.
!LO:LB:g=original	!	!	!LO:LB:g=original	!	!LO:LB:g=original	!	!	!
=61	=61	=61	=61	=61	=61	=61	=61	=61
2r	.	.	2e-\	per	2g\	per	2cc\	per
4G\	per	.	2Bn\	quem	2g\	quem	2dd\	quem
4G\	quem	.	.	.	.	.	.	.
!	!	!	!	!	!	!	!LO:LB:g=original	!
=62	=62	=62	=62	=62	=62	=62	=62	=62
2c\	tra-	.	2c\	tra-	2g\	tra-	2ee-\	tra-
2Bn\	.	.	2d\	.	2g\	.	2ff\	.
=63	=63	=63	=63	=63	=63	=63	=63	=63
2c\	.	.	2c\	.	2g\	.	2ee-\	.
2F\	-dar	.	2f\	-dar	2a-\	-dar	2dd\	-dar
=64	=64	=64	=64	=64	=64	=64	=64	=64
2G\	e-	.	2e-\	e-	1g	e-	2cc\	e-
2GG/	.	.	2d\	.	.	.	2bn\	.
=65	=65	=65	=65	=65	=65	=65	=65	=65
1C;	-go.	.	1e-;	-go.	1g;	-go.	1cc;	-go.
==	==	==	==	==	==	==	==	==
*-	*-	*-	*-	*-	*-	*-	*-	*-
!!!system-decoration: [(s1,s2,s3,s4)]
!!!ENC: Berenika Jozajtis
!!!END: 2023-11-15
!!!EED: Marta Chmielewska
!!!EEV: 2024-06-03
